docs/assets/img/icon-phone.svg

<svg width="30" height="30" viewBox="0 0 30 30" fill="none" xmlns="http://www.w3.org/2000/svg">
<g clip-path="url(#clip0_0_1530)">
<path d="M25 19.375C23.4375 19.375 21.9375 19.125 20.5375 18.6625C20.1 18.525 19.6125 18.625 19.2625 18.9625L16.5125 21.7125C12.975 19.9125 10.075 17.025 8.275 13.475L11.025 10.7125C11.375 10.3875 11.475 9.9 11.3375 9.4625C10.875 8.0625 10.625 6.5625 10.625 5C10.625 4.3125 10.0625 3.75 9.375 3.75H5C4.3125 3.75 3.75 4.3125 3.75 5C3.75 16.7375 13.2625 26.25 25 26.25C25.6875 26.25 26.25 25.6875 26.25 25V20.625C26.25 19.9375 25.6875 19.375 25 19.375ZM23.75 15H26.25C26.25 8.7875 21.2125 3.75 15 3.75V6.25C19.8375 6.25 23.75 10.1625 23.75 15ZM18.75 15H21.25C21.25 11.55 18.45 8.75 15 8.75V11.25C17.075 11.25 18.75 12.925 18.75 15Z" fill="#2C3D73"/>
</g>
<defs>
<clipPath id="clip0_0_1530">
<rect width="30" height="30" fill="white"/>
</clipPath>
</defs>
</svg>

<svg width="30" height="30" fill="none" xmlns="http://www.w3.org/2000/svg"><g clip-path="url(#clip0_0_1530)"><path d="M25 19.375a14.2 14.2 0 01-4.462-.712 1.276 1.276 0 00-1.276.3l-2.75 2.75a18.807 18.807 0 01-8.237-8.238l2.75-2.762a1.2 1.2 0 00.313-1.25A14.2 14.2 0 0110.625 5c0-.688-.563-1.25-1.25-1.25H5c-.688 0-1.25.563-1.25 1.25 0 11.738 9.512 21.25 21.25 21.25.688 0 1.25-.563 1.25-1.25v-4.375c0-.688-.563-1.25-1.25-1.25zM23.75 15h2.5c0-6.213-5.038-11.25-11.25-11.25v2.5A8.744 8.744 0 0123.75 15zm-5 0h2.5c0-3.45-2.8-6.25-6.25-6.25v2.5A3.745 3.745 0 0118.75 15z" fill="#2C3D73"/></g><defs><clipPath id="clip0_0_1530"><path fill="#fff" d="M0 0h30v30H0z"/></clipPath></defs></svg>
